X:9080
T:La stonique - bourree
C:Stephan Steiner
R:Bourree a deux temps
Z:abc transcription Helmut Eberl
M:3/8
L:1/8
K:Gmix
BGd|cB/G/B/c/|dGe|AfF|
BGd|cB/G/B/c/|FdG|cFd:|
Gef|g>fe/g/|f/e/de|Fcd|
Gef|g>BA/G/|FdG|cFd:|


